X:125
T:Edinburgh Musical Fund
C:J Reinagle
B:Hamilton's Universal Tunebook Vol.1, 1844
Z:Nigel Gatherer
M:6/8
L:1/8
K:G
d|g3 fed|efg d3|c3 BAG|F>GA DEF|G2 B Bcd|F2 c cde|F2 d def|g3 G2:|
D|EFG ABc|d2 B g3|e2 c a2 f|gga b2 D|EFG ABc|d2 B g3|e2 c a2 f|gga g2:|
z|ddd dgd|BBB BdB|G3 AGA|B>cB B2 c|ddd dgd|BBB Bga|b2 g agf|g3 g2:|
<end>
<start>
